**kern	**text	**kern	**text	**kern	**text	**kern	**text	**kern	**text
*staff5	*staff5	*staff4	*staff4	*staff3	*staff3	*staff2	*staff2	*staff1	*staff1
*I"Basso	*	*I"Tenore	*	*I"Alto	*	*I"Soprano II	*	*I"Soprano I	*
=1-	=1-	=1-	=1-	=1-	=1-	=1-	=1-	=1-	=1-
*clefF4	*	*clefGv2	*	*clefGv2	*	*clefG2	*	*clefG2	*
*k[]	*	*k[]	*	*k[]	*	*k[]	*	*k[]	*
*met(c|)	*	*met(c|)	*	*met(c|)	*	*met(c|)	*	*met(c|)	*
*M2/2	*	*M2/2	*	*M2/2	*	*M2/2	*	*M2/2	*
1r	.	1r	.	1r	.	1r	.	[1e	Je-
=2	=2	=2	=2	=2	=2	=2	=2	=2	=2
1r	.	1r	.	1r	.	1r	.	1e]	.
=3	=3	=3	=3	=3	=3	=3	=3	=3	=3
1r	.	1r	.	[1A	Je-	1r	.	[1a	-ru-
=4	=4	=4	=4	=4	=4	=4	=4	=4	=4
1r	.	1r	.	1A]	.	1r	.	2a/]	.
.	.	.	.	.	.	.	.	2a/	-sa-
=5	=5	=5	=5	=5	=5	=5	=5	=5	=5
1r	.	[1E	Je-	[1e	-ru-	1r	.	[1g	-lem,
=6	=6	=6	=6	=6	=6	=6	=6	=6	=6
1r	.	1E]	.	2e\]	.	1r	.	1g]	.
.	.	.	.	2e\	-sa-	.	.	.	.
=7	=7	=7	=7	=7	=7	=7	=7	=7	=7
[1AA	Je-	[1A	-ru-	1c	-lem,	1r	.	[1e	sur-
=8	=8	=8	=8	=8	=8	=8	=8	=8	=8
1AA]	.	2A/]	.	1c	sur-	1r	.	1e]	.
.	.	2A/	-sa-	.	.	.	.	.	.
=9	=9	=9	=9	=9	=9	=9	=9	=9	=9
[1E	-ru-	[1G	-lem,	1B	-ge	1r	.	1e	-ge
=10	=10	=10	=10	=10	=10	=10	=10	=10	=10
2E\]	.	1G]	.	2r	.	1r	.	1r	.
2E\	-sa-	.	.	2B\	Je-	.	.	.	.
=11	=11	=11	=11	=11	=11	=11	=11	=11	=11
1C	-lem,	1r	.	2.e\	-ru-	1r	.	2r	.
.	.	.	.	.	.	.	.	2e/	Je-
.	.	.	.	4e\	-sa-	.	.	.	.
=12	=12	=12	=12	=12	=12	=12	=12	=12	=12
!!linebreak:original
1F	sur-	1r	.	1d	-lem,	1r	.	2.a/	-ru-
.	.	.	.	.	.	.	.	4a/	-sa-
=13	=13	=13	=13	=13	=13	=13	=13	=13	=13
[1E	-ge	1c	sur-	[1e	sur-	1r	.	[1g	-lem,
=14	=14	=14	=14	=14	=14	=14	=14	=14	=14
1E]	.	1B	-ge	1e]	.	1r	.	1g]	.
=15	=15	=15	=15	=15	=15	=15	=15	=15	=15
[1A	sur-	1r	.	2e\	-ge	1r	.	[1cc	sur-
.	.	.	.	[2e\	sur-	.	.	.	.
=16	=16	=16	=16	=16	=16	=16	=16	=16	=16
1A]	.	1c	sur-	2e\]	.	1r	.	1cc]	.
.	.	.	.	2f#\	.	.	.	.	.
=17	=17	=17	=17	=17	=17	=17	=17	=17	=17
1G	-ge	1d	-ge	1g	-ge	1r	.	1b	-ge
=18	=18	=18	=18	=18	=18	=18	=18	=18	=18
2r	.	2r	.	2r	.	1r	.	2r	.
2C/	et	2c\	et	2e\	et	.	.	2g/	et
=19	=19	=19	=19	=19	=19	=19	=19	=19	=19
2C/	ex-	2c\	ex-	2e\	ex-	1r	.	2g/	ex-
2C/	-u-	2c\	-u-	2e\	-u-	.	.	2g/	-u-
=20	=20	=20	=20	=20	=20	=20	=20	=20	=20
2F\	-e	2c\	-e	2f\	-e	1r	.	2a/	-e
2C/	te	2c\	te	2e\	te	.	.	2g/	te
=21	=21	=21	=21	=21	=21	=21	=21	=21	=21
2.D\	ve-	2.A/	ve-	2.d\	ve-	1r	.	2.f/	ve-
4D\	-sti-	4A/	-sti-	4d\	-sti-	.	.	4f/	-sti-
=22	=22	=22	=22	=22	=22	=22	=22	=22	=22
2AA/	-bus	1A	-bus	2c#\	-bus	1r	.	2e/	-bus
2D\	ju-	.	.	2d\	ju-	.	.	2f/	ju-
=23	=23	=23	=23	=23	=23	=23	=23	=23	=23
!!pagebreak:original
4.C/	-cun-	2c\	ju-	2.e\	-cun-	1r	.	2g/	-cun-
8D\	.	.	.	.	.	.	.	.	.
4E\	-di-	4B\	-cun-	.	.	.	.	4e/	.
4F\	-ta-	4A/	-di-	4d\	-di-	.	.	[4a/	.
=24	=24	=24	=24	=24	=24	=24	=24	=24	=24
1E	.	1B	-ta-	1e	-ta-	1r	.	4a/]	.
.	.	.	.	.	.	.	.	bq/	.
.	.	.	.	.	.	.	.	8a/L	-di-
.	.	.	.	.	.	.	.	8g#i/J	.
.	.	.	.	.	.	.	.	2g#/	-ta-
=25	=25	=25	=25	=25	=25	=25	=25	=25	=25
1AA	-tis:	1c#	-tis:	1e	-tis:	1r	.	1a	-tis:
=26	=26	=26	=26	=26	=26	=26	=26	=26	=26
2r	.	2r	.	2r	.	1r	.	2r	.
2D\	in-	2A/	in-	2d\	in-	.	.	2f/	in-
=27	=27	=27	=27	=27	=27	=27	=27	=27	=27
2.D\	-du-	2.A/	-du-	2.d\	-du-	1r	.	2.f/	-du-
4D\	-ce-	4A/	-ce-	4d\	-ce-	.	.	4f/	-ce-
=28	=28	=28	=28	=28	=28	=28	=28	=28	=28
2BB/	-re	2B\	-re	2d#\	-re	1r	.	2f#/	-re
[2E\	ci-	[2B\	ci-	[2e\	ci-	.	.	[2g/	ci-
=29	=29	=29	=29	=29	=29	=29	=29	=29	=29
2E\]	.	2B\]	.	2e\]	.	1r	.	2g/]	.
2BB/	-ne-	2B\	-ne-	2d#\	-ne-	.	.	2f#/	-ne-
=30	=30	=30	=30	=30	=30	=30	=30	=30	=30
[1BB	-re	[1B	-re	[1d#	-re	1r	.	[1f#	-re
=31	=31	=31	=31	=31	=31	=31	=31	=31	=31
1BB]	.	1B]	.	1d#]	.	1r	.	1f#]	.
=32	=32	=32	=32	=32	=32	=32	=32	=32	=32
1E	et	1B	et	1e	et	1r	.	1g	et
=33	=33	=33	=33	=33	=33	=33	=33	=33	=33
!!linebreak:original
2AA/	ci-	2A/	ci-	2c#\	ci-	1r	.	2e/	ci-
[2D\	-li-	[2A/	-li-	[2d\	-li-	.	.	[2f/	-li-
=34	=34	=34	=34	=34	=34	=34	=34	=34	=34
2D\]	.	2A/]	.	2d\]	.	1r	.	2f/]	.
2AA/	-ci-	2A/	-ci-	2c#i\	-ci-	.	.	2e/	-ci-
=35	=35	=35	=35	=35	=35	=35	=35	=35	=35
[1AA	-o,	[1A	-o,	[1c#	-o,	1r	.	[1e	-o,
=36	=36	=36	=36	=36	=36	=36	=36	=36	=36
1AA]	.	1A]	.	1c#]	.	1r	.	1e]	.
=37||	=37||	=37||	=37||	=37||	=37||	=37||	=37||	=37||	=37||
1E	Qui-	1G	Qui-	1B	Qui-	1r	.	1e	Qui-
=38	=38	=38	=38	=38	=38	=38	=38	=38	=38
2E\	-a	2G/	-a	2B\	-a	1r	.	2e/	-a
2C/	in	2G/	in	2c\	in	.	.	2e/	in
=39	=39	=39	=39	=39	=39	=39	=39	=39	=39
[1F	te	[1A	te	[1c	te	1r	.	[1f	te
=40	=40	=40	=40	=40	=40	=40	=40	=40	=40
2F\]	.	2A/]	.	2c\]	.	1r	.	2f/]	.
2D\	oc-	2A/	oc-	2d\	oc-	.	.	2f/	oc-
=41	=41	=41	=41	=41	=41	=41	=41	=41	=41
1BB	-ci-	1B	-ci-	1d#	-ci-	1r	.	1f#	-ci-
=42	=42	=42	=42	=42	=42	=42	=42	=42	=42
1E	-sus	1B	-sus	1e	-sus	1r	.	1g	-sus
=43	=43	=43	=43	=43	=43	=43	=43	=43	=43
[1AA	est	[1A	est	[1c#	est	1r	.	[1e	est
=44	=44	=44	=44	=44	=44	=44	=44	=44	=44
1AA]	.	1A]	.	1c#]	.	1r	.	1e]	.
=45	=45	=45	=45	=45	=45	=45	=45	=45	=45
1D	Sal-	1A	Sal-	1d	Sal-	1r	.	1f	Sal-
=46	=46	=46	=46	=46	=46	=46	=46	=46	=46
!!linebreak:original
[1C	-va-	1c	-va-	2.e\	-va-	1r	.	2.g/	-va-
.	.	.	.	4d\	.	.	.	4f/	.
=47	=47	=47	=47	=47	=47	=47	=47	=47	=47
2C/]	.	1G	-tor	2c\	.	1r	.	2e/	.
2GG/	-tor	.	.	2B\	-tor	.	.	2d/	-tor
=48	=48	=48	=48	=48	=48	=48	=48	=48	=48
[1AA	I-	1E	I-	2.A/	I-	1r	.	2.c/	I-
.	.	.	.	4B\	.	.	.	4d/	.
=49	=49	=49	=49	=49	=49	=49	=49	=49	=49
1AA]	.	[1A	.	[1c	.	1r	.	[1e	.
=50	=50	=50	=50	=50	=50	=50	=50	=50	=50
1AA	-sra-	2A/]	.	2c\]	.	1r	.	2e/]	.
.	.	2A/	-sra-	2c\	-sra-	.	.	2e/	-sra-
=51	=51	=51	=51	=51	=51	=51	=51	=51	=51
[1E	-el.	[1G#i	-el.	[1B	-el.	1r	.	[1e	-el.
=52	=52	=52	=52	=52	=52	=52	=52	=52	=52
1E]	.	1G#]	.	1B]	.	1r	.	1e]	.
=53||	=53||	=53||	=53||	=53||	=53||	=53||	=53||	=53||	=53||
1r	.	1r	.	[1e	De-	1r	.	1r	.
=54	=54	=54	=54	=54	=54	=54	=54	=54	=54
1r	.	1r	.	2e\]	.	1r	.	1r	.
.	.	.	.	2e\	-duc	.	.	.	.
=55	=55	=55	=55	=55	=55	=55	=55	=55	=55
1r	.	1r	.	1d	qua-	1r	.	[1a	De-
=56	=56	=56	=56	=56	=56	=56	=56	=56	=56
1r	.	1r	.	2c\	-si	1r	.	2a/]	.
.	.	.	.	2A/	tor-	.	.	2a/	-duc
=57	=57	=57	=57	=57	=57	=57	=57	=57	=57
1r	.	1r	.	2B\	-ren-	1r	.	1g	qua-
.	.	.	.	2c\	-tem	.	.	.	.
=58	=58	=58	=58	=58	=58	=58	=58	=58	=58
!!pagebreak:original
1r	.	1r	.	2d\	la-	1r	.	2f/	-si
.	.	.	.	2B\	-cri-	.	.	2d/	tor-
=59	=59	=59	=59	=59	=59	=59	=59	=59	=59
1r	.	1r	.	2A/	-mas	1r	.	2e/	.
.	.	.	.	2d\	per	.	.	2f/	-ren-
=60	=60	=60	=60	=60	=60	=60	=60	=60	=60
1r	.	1r	.	1c	di-	1r	.	2g/	-tem
.	.	.	.	.	.	.	.	2e/	la-
=61	=61	=61	=61	=61	=61	=61	=61	=61	=61
1r	.	1r	.	2B\	-em	1r	.	2d/	-cri-
.	.	.	.	2e\	per	.	.	2g/	-mas
=62	=62	=62	=62	=62	=62	=62	=62	=62	=62
1r	.	1r	.	1d	di-	1r	.	1f	per
=63	=63	=63	=63	=63	=63	=63	=63	=63	=63
1r	.	1r	.	2c\	-em	1r	.	2e/	di-
.	.	.	.	2d\	et	.	.	2f/	-em
=64	=64	=64	=64	=64	=64	=64	=64	=64	=64
1r	.	1r	.	2c\	no-	1r	.	4g/	et
.	.	.	.	.	.	.	.	4e/	.
.	.	.	.	4B\	.	.	.	[2a/	no-
.	.	.	.	4A/	.	.	.	.	.
=65	=65	=65	=65	=65	=65	=65	=65	=65	=65
1r	.	1r	.	1B	.	1r	.	2a/]	.
.	.	.	.	.	.	.	.	2g#/	.
=66	=66	=66	=66	=66	=66	=66	=66	=66	=66
1r	.	1r	.	1A	-ctem,	1r	.	1a	-ctem,
=67	=67	=67	=67	=67	=67	=67	=67	=67	=67
1r	.	1r	.	2r	.	2r	.	2r	.
.	.	.	.	[2d\	et	[2a/	et	[2f/	et
=68	=68	=68	=68	=68	=68	=68	=68	=68	=68
1r	.	1r	.	2d\]	.	2a/]	.	2f/]	.
.	.	.	.	2c#\	non	2a/	non	2e/	non
=69	=69	=69	=69	=69	=69	=69	=69	=69	=69
!!linebreak:original
1r	.	1r	.	2.d\	tac-	2.a/	tac-	2.f/	tac-
.	.	.	.	4d\	-ce-	4a/	-ce-	4f/	-ce-
=70	=70	=70	=70	=70	=70	=70	=70	=70	=70
1r	.	1r	.	2c#\	-at	2a/	-at	2e/	-at
.	.	.	.	2d\	pu-	2a/	pu-	2f#/	pu-
=71	=71	=71	=71	=71	=71	=71	=71	=71	=71
1r	.	1r	.	1G	-pil-	1b	-pil-	1g	-pil-
=72	=72	=72	=72	=72	=72	=72	=72	=72	=72
1r	.	1r	.	2A/	-la	2cc\	-la	2e/	-la
.	.	.	.	[2d\	o-	[2a/	o-	[2f/	o-
=73	=73	=73	=73	=73	=73	=73	=73	=73	=73
1r	.	1r	.	2d\]	.	2a/]	.	2f/]	.
.	.	.	.	2c#\	-cu-	2a/	-cu-	2e/	-cu-
=74	=74	=74	=74	=74	=74	=74	=74	=74	=74
1r	.	1r	.	1d	-li	1a	-li	2.f/	-li
.	.	.	.	.	.	.	.	8e/L	.
.	.	.	.	.	.	.	.	8d/J	.
=75	=75	=75	=75	=75	=75	=75	=75	=75	=75
1r	.	1r	.	4A/	tu-	1cc	tu-	2e/	tu-
.	.	.	.	4B\	.	.	.	.	.
.	.	.	.	4c\	.	.	.	[2a/	.
.	.	.	.	4d\	.	.	.	.	.
=76	=76	=76	=76	=76	=76	=76	=76	=76	=76
1r	.	1r	.	1e	.	1b	.	2a/]	.
.	.	.	.	.	.	.	.	2g#/	.
=77	=77	=77	=77	=77	=77	=77	=77	=77	=77
1r	.	1r	.	[1A	-i.	[1a	-i.	[1a	-i.
=78	=78	=78	=78	=78	=78	=78	=78	=78	=78
1r	.	1r	.	1A]	.	1a]	.	1a]	.
!!linebreak:original
=79||	=79||	=79||	=79||	=79||	=79||	=79||	=79||	=79||	=79||
!!linebreak:original
1E	Qui-	1G	Qui-	1B	Qui-	1e	Qui-	1e	Qui-
=80	=80	=80	=80	=80	=80	=80	=80	=80	=80
2E\	-a	2G/	-a	2B\	-a	2e/	-a	2e/	-a
2C/	in	2G/	in	2c\	in	2e/	in	2e/	in
=81	=81	=81	=81	=81	=81	=81	=81	=81	=81
[1F	te	[1A	te	[1c	te	[1f	te	[1f	te
=82	=82	=82	=82	=82	=82	=82	=82	=82	=82
2F\]	.	2A/]	.	2c\]	.	2f/]	.	2f/]	.
2D\	oc-	2A/	oc-	2d\	oc-	2f/	oc-	2f/	oc-
=83	=83	=83	=83	=83	=83	=83	=83	=83	=83
1BB	-ci-	1B	-ci-	1d#	-ci-	1f#	-ci-	1f#	-ci-
=84	=84	=84	=84	=84	=84	=84	=84	=84	=84
1E	-sus	1B	-sus	1e	-sus	1g	-sus	1g	-sus
=85	=85	=85	=85	=85	=85	=85	=85	=85	=85
[1AA	est	[1A	est	[1c#	est	[1e	est	[1e	est
=86	=86	=86	=86	=86	=86	=86	=86	=86	=86
1AA]	.	1A]	.	1c#]	.	1e]	.	1e]	.
=87	=87	=87	=87	=87	=87	=87	=87	=87	=87
1D	Sal-	1A	Sal-	1d	Sal-	1f	Sal-	1f	Sal-
=88	=88	=88	=88	=88	=88	=88	=88	=88	=88
[1C	-va-	1c	-va-	2.e\	-va-	2.g/	-va-	2.g/	-va-
.	.	.	.	4d\	.	4f/	.	4f/	.
=89	=89	=89	=89	=89	=89	=89	=89	=89	=89
2C/]	.	1G	-tor	2c\	.	2e/	.	2e/	.
2GG/	-tor	.	.	2B\	-tor	2d/	-tor	2d/	-tor
=90	=90	=90	=90	=90	=90	=90	=90	=90	=90
[1AA	I-	1E	I-	2.A/	I-	2.c/	I-	2.c/	I-
.	.	.	.	4B\	.	4d/	.	4d/	.
=91	=91	=91	=91	=91	=91	=91	=91	=91	=91
1AA]	.	[1A	.	[1c	.	[1e	.	[1e	.
=92	=92	=92	=92	=92	=92	=92	=92	=92	=92
1AA	-sra-	2A/]	.	2c\]	.	2e/]	.	2e/]	.
.	.	2A/	-sra-	2c\	-sra-	2e/	-sra-	2e/	-sra-
=93	=93	=93	=93	=93	=93	=93	=93	=93	=93
[1E	-el.	[1G#i	-el.	[1B	-el.	[1e	-el.	[1e	-el.
=94	=94	=94	=94	=94	=94	=94	=94	=94	=94
1E]	.	1G#]	.	1B]	.	1e]	.	1e]	.
==	==	==	==	==	==	==	==	==	==
*-	*-	*-	*-	*-	*-	*-	*-	*-	*-
!!!OTL: Jerusalem surge 
!!!COM: Ingegneri, Marc' Antonio
!!!CDT: ca. 1535/36-1592-07-01
!!!TXO: Latin
!!!ODT: 
!!!ARL: Klasztor OO. Paulinów na Jasnej Górze
!!!voices:	5
!!title: @{OTL}, @{GTL}, ed. @{ENC}
!!!pag:
!!!GTL: Responsoria in Hebdomada majore
!!!EFL: 
!!!YEM: Creative Commons CC/BY/NC/SA 4.0
!!!ENC: Marcin Konik
!!!END: 2015-0m-dd
!!!EED: Marcin Konik
!!!EEV: 
!!!ONB: Encoded in vim by Marcin Konik
!!!CharacterEncoding: utf-8
!!!RDF**kern: l=long note in original notation
!!!RDF**kern: i=editorial accidental
!!muse2ps: z14jc180F
